!!!OTL: 181. Ringelreihen.
!!!ARE: Europa, Mitteleuropa, Deutschland, Meerane
!!!SCT: K2181
!!!TXL: @@DE
!!!YEM: Copyright 1995, estate of Helmut Schaffrath.
**kern	**text
*clefG2	*
*M2/4	*
*k[b-]	*
*F:	*
{8f	Wir
=1	=1
8cc	ging'n
8cc	ein-
8cc	-mal
8dd	nach
=2	=2
4cc	Schwaben,
8a}	.
{8a	da
=3	=3
8cc	kam
8cc	ein
8cc	klei-
8dd	-nes
=4	=4
8cc	Hüh-
8cc	-ner-
8a}	-lein,
{8a	das
=5	=5
8cc	woll-
8cc	-ten
8cc	wir
8dd	nicht
=6	=6
4cc	ha-
8a	-ben.
8r}	.
=7	=7
{8cc	Komm
8cc	her-
4a	-ein,
=8	=8
8cc	komm
8cc	herein!
4a}	.
=9	=9
{8cc	Ohne
8cc	.
8cc	dir
8dd	geht's
=10	=10
8cc	auch
8cc	noch
8a}	fein.
==	==
!!!AGN: Kinder - Lied, Reigen, Tanz - Spiel, Brautwerbung
!!!ONB: ESAC (Essen Associative Code) Database: KINDER
!!!AMT: simple duple
!!!AIN: vox
!!!EED: Helmut Schaffrath
!!!EEV: 1.0
!!Aus Meerane 1886.
!!!GTL: Zweites Buch. Kinderspiel: 2. Reigen und Tanzspiele. / D. Ringelreigen mit Wahl (Brautwerbung).
!!@@COMMENT:"Jnhalt und Ausführung nicht näher bekannt, vermuthlich dem vorſtehenden Spiele ähnlich."
!!@@END:
!!!URL-scan: https://archive.org/details/DeutschesKinderliedUndKinderspiel/page/472/mode/1up
!!!ENC: Anna Maria Matuszewska
!!!EEV: 2024/03/09
*-	*-
